X:1
T:The Lake of Ponchartrain
M:4/4
L:1/4
K:F
 C/2| A A C A| c3/2- d/2 c c| d c G ^G| A3 A| A A C A| c3/2- d/2 c c|\
 d- c G ^G| A3 A| A A C A| c3/2- d/2 c c| d3/2 c/2 G G| A3 A/2A/2|\
 A A C A/2A/2| c3/2 d/2 c c/2c/2| d c B G| F3 z/2||
